X:1
T:The Cross Is Not Greater
T:Ballington Booth, 1892
T:The Cross Is Not Greater
T:Public Domain
T:Public Domain
T:Public Domain
C:Ballington Booth, 1892
Z:Public Domain
%%score 1 ( 2 3 )
L:1/8
M:4/4
K:Eb
V:1 treble 
V:2 bass 
V:3 bass 
V:1
 [GB]2 | [GB]2 [^F=A][GB] [_Ac]2 [EG][GB] | [FA] [DF]3- [DF]2 [DF][EG] | [FA]3 [GB] [Ad]3 [Ac] | %4
w: 1.~The|cross that He gave may be|heav- y, * But it|ne’er out- weighs His|
w: 2.~The|thorns in my path are not|sharp- er * Than com-|posed His crown for|
w: 3.~The|light of His love shin- eth|bright- er, * As it|falls on paths of|
w: 4.~His|will have I joy in ful-|fill- ing, * As I’m|walk- ing in His|
 ([GB]4 [EG]3) [GB] | [Ge]2 [Fd][Ge] [Af]2 [Ge][GB] | [Bd] [Ac]3- [Ac]2 [EA][Ec] | %7
w: grace; * The|storm that I feared may sur-|round me, * But it|
w: me; * The|cup that I drink not more|bit- ter * Than He|
w: woe; * The|toil of my work grow- eth|light- er, * As I|
w: sight; * My|all to the blood I am|bring- ing, * It a-|
 [EB]2- [EB][DF] [DA]3 [DF] | [B,E]6 z ||"^Refrain" [GB] | [GB]2 [^F=A][GB] [_Ac][GB][F=A][GB] | %11
w: ne’er * ex- cludes His|face.|||
w: drank~in * Geth- sem- a-|ne.|||
w: stoop * to raise the|low.|||
w: lone * can keep me|right.|||
 [EG]6 z [GB] | [GB]2 [^F=A][GB] [_Ac][GB][F=A][GB] | [EG]6 [GB][Ge] | %14
w: |||
w: |||
w: |||
w: |||
 [Ae][Ad][Ad][DF] [FA]2 [FA][Ac] | [Ac][GB][GB][B,E] [EG]2 [_DG][DG] | [CG]2 [CF]2 [B,E]2 [B,D]2 | %17
w: |||
w: |||
w: |||
w: |||
 [B,E]6 |] %18
w: |
w: |
w: |
w: |
V:2
 [E,B,]2 | [E,E]2 [E,E][E,E] [E,E]2 [E,B,][E,B,] | [B,,B,] [B,,B,]3- [B,,B,]2 [B,,B,][B,,B,] | %3
w: ~|~ ~ ~ ~ ~ ~|~ ~ * ~ ~|
 [B,,B,]3 [B,,B,] [B,,B,]3 [B,,D] | (E4 B,3) [E,B,] | [E,B,]2 [E,B,][E,B,] [E,C]2 [E,B,][E,E] | %6
w: ~ ~ ~ ~|~ * ~|~ ~ ~ ~ ~ ~|
 [A,,E] [A,,E]3- [A,,E]2 [A,,C][A,,A,] | [B,,G,]2- [B,,G,][B,,A,] [B,,F,]3 [B,,A,] | [E,G,]6 z || %9
w: ~ ~ * ~ ~|~ * ~ ~ ~|The|
 [E,E] | [E,E]2 [E,E][E,E] [E,E][E,E][E,E][E,E] | (z E,G,B, E,2) z [E,E] | %12
w: cross|is not great- er than His grace,|* * * * The|
 [E,E]2 [E,E][E,E] [E,E][E,E][E,E][E,E] | (z E,G,B, E,2) [E,B,][G,B,] | %14
w: * can- not hide His bless- èd|* * * * face; I|
 B,B,B,B, [B,D]2 [B,,D][B,,D] | [E,E][E,E][E,E][E,G,] [E,B,]2 [E,B,][E,B,] | %16
w: * sa- tis- fied to know That|be- low, I can con- quer ev-|
 [A,,A,]2 [A,,A,]2 [B,,G,]2 [B,,F,]2 | [E,G,]6 |] %18
w: ery foe. * *||
V:3
 x2 | x8 | x8 | x8 | E,6 x2 | x8 | x8 | x8 | x7 || x | x8 | [E,B,]6 x2 | x8 | [E,B,]6 x2 | %14
w: ||||~|||||||storm||am|
 B,B,B,B, x4 | x8 | x8 | x6 |] %18
w: with Je- sus here||||

